assets/light/faders-horizontal-light.svg

<svg id="Flat" xmlns="http://www.w3.org/2000/svg" viewBox="0 0 256 256">
  <path d="M141.999,171.99353a6.00029,6.00029,0,0,1-6,6h-96a6,6,0,0,1,0-12h96A6.00029,6.00029,0,0,1,141.999,171.99353Zm74-6h-42v-18a6,6,0,0,0-12,0v48a6,6,0,0,0,12,0v-18h42a6,6,0,0,0,0-12Zm-176-76.001,32,.001h0a6,6,0,0,0,0-12l-32-.001h0a6,6,0,0,0,0,12Zm64,24.001a6.00029,6.00029,0,0,0,6-6v-18l106-.001a6,6,0,1,0,0-12l-106,.001v-18a6,6,0,1,0-12,0v48A6.0003,6.0003,0,0,0,103.999,113.99353Z"/>
</svg>

<svg xmlns="http://www.w3.org/2000/svg" viewBox="0 0 256 256"><path d="M142,172a6,6,0,0,1-6,6H40a6,6,0,0,1,0-12h96A6,6,0,0,1,142,172Zm74-6H174V148a6,6,0,0,0-12,0v48a6,6,0,0,0,12,0V178h42a6,6,0,0,0,0-12ZM40,90H72a6,6,0,0,0,0-12H40a6,6,0,0,0,0,12Zm64,24a6,6,0,0,0,6-6V90H216a6,6,0,0,0,0-12H110V60a6,6,0,0,0-12,0v48A6,6,0,0,0,104,114Z"/></svg>
